Adwaita++-Light/panel/16/smartphonedisconnected.svg

<svg height="16" width="16" xmlns="http://www.w3.org/2000/svg">
  <path d="m4 1c-1 0-1 1-1 1v12s0 1 1 1h8c1 0 1-1 1-1v-12s0-1-1-1zm7 3v8h-6v-7.998zm-3.5 9h1s.5 0 .5.5-.5.5-.5.5h-1s-.5 0-.5-.5.5-.5.5-.5z" fill="#4285f4"/>
</svg>

<svg xmlns="http://www.w3.org/2000/svg" width="16" height="16" version="1.1">
 <defs>
  <style id="current-color-scheme" type="text/css">
   .ColorScheme-Text { color:#444444; } .ColorScheme-Highlight { color:#4285f4; }
  </style>
 </defs>
 <path style="fill:currentColor" class="ColorScheme-Highlight" d="M 4,1 C 3,1 3,2 3,2 V 14 C 3,14 3,15 4,15 H 12 C 13,15 13,14 13,14 V 2 C 13,2 13,1 12,1 Z M 11,4 V 12 H 5 V 4.002 Z M 7.5,13 H 8.5 C 8.5,13 9,13 9,13.5 9,14 8.5,14 8.5,14 H 7.5 C 7.5,14 7,14 7,13.5 7,13 7.5,13 7.5,13 Z"/>
</svg>
